X:4
T:J\"anner-Polka D&G (tinwhistle in D) solo
T:pk09168 (Hanny Christen)
%%MIDI program 72   % 111 /74 / 79=whistle
R:polka
M:2/4
L:1/16
K:D transpose=12
AFf2 dFB2 | (A2"_=C"C2) .C2.C2 | BAg2 c2c2 | BAf2 d2d2 | AFf2 dFB2 | (A2C2) .C2.C2 | BA.g2 c2(Bc) | d2f2 d2z2 :| 
{/F}.f2.d2 (c2F2) | B2d2 !>!F4 | {/c}B^ABc {/e}dcde | f2^ef g2f2 | {/F}.f2.d2 (c2F2) | .B2.d2 !>!F4 | {/c}B^ABc {/e}dcde | f2ff f2f2 | 
fgc2 c2BA | ^efd2 d2cB | ACB2 A3B | BAg2 !>!f4 | fgc2 c2BA | ^efd2 d2cB | ACB2 A2fe | d2d2 d2z2 || [K:G] 
|: Bdgd fA"_c"ce | dDGc !>!B4 | ^GAf2 e3F | GBe2 d3"_c"c | Bdgf agdB | Ace^d fecA | GBed ^cdfa | g2g2 g2z2 :|
% pk09168 (HC 329/TN 8)
% Sep. 17, 2016

